public/_vara/icons/tina.svg

<svg fill="currentColor" viewBox="0 0 24 24"><path d="M14.46 10.662c1.166-.965 1.683-6.666 2.188-8.715.505-2.05 2.593-1.946 2.593-1.946s-.542.944-.321 1.648 1.736 1.333 1.736 1.333l-.327.861s-.682-.087-1.088.725.261 8.853.261 8.853-2.44 4.813-2.44 6.845.962 3.734.962 3.734h-1.35s-1.98-2.356-2.386-3.533-.243-2.355-.243-2.355-2.152-.122-4.061 0-3.181 1.762-3.41 2.68c-.23.917-.325 3.208-.325 3.208H5.182c-.65-2.004-1.166-2.722-.886-3.734.776-2.804.623-4.394.444-5.102-.18-.708-1.395-1.326-1.395-1.326.595-1.213 1.203-1.796 3.817-1.857s6.132-.354 7.298-1.319m-5.183 8.209s.136 3.708 1.392 5.129H9.413c-1.464-1.3-1.74-3.852-1.74-3.852.081-.324.965-1.069 1.604-1.277"/></svg>

<svg role="img" viewBox="0 0 24 24" xmlns="http://www.w3.org/2000/svg"><title>Tina</title><path d="M 14.46 10.662 C 15.626 9.697 16.143 3.996 16.648 1.947 C 17.153 -0.103 19.241 0.001 19.241 0.001 C 19.241 0.001 18.699 0.945 18.92 1.649 C 19.141 2.353 20.656 2.982 20.656 2.982 L 20.329 3.843 C 20.329 3.843 19.647 3.756 19.241 4.568 C 18.835 5.38 19.502 13.421 19.502 13.421 C 19.502 13.421 17.062 18.234 17.062 20.266 C 17.062 22.298 18.024 24 18.024 24 L 16.674 24 C 16.674 24 14.694 21.644 14.288 20.467 C 13.882 19.289 14.045 18.112 14.045 18.112 C 14.045 18.112 11.893 17.99 9.984 18.112 C 8.076 18.234 6.803 19.874 6.574 20.792 C 6.344 21.709 6.249 24 6.249 24 L 5.182 24 C 4.532 21.996 4.016 21.278 4.296 20.266 C 5.072 17.462 4.919 15.872 4.74 15.164 C 4.56 14.456 3.345 13.838 3.345 13.838 C 3.94 12.625 4.548 12.042 7.162 11.981 C 9.775 11.921 13.294 11.627 14.46 10.662 Z M 9.277 18.871 C 9.277 18.871 9.413 22.579 10.669 24 L 9.413 24 C 7.949 22.7 7.673 20.148 7.673 20.148 C 7.754 19.824 8.638 19.079 9.277 18.871 Z"/></svg>
